X:1
T:251 - Quase Achegado
T:Letra: Philip Paul Bliss (1838-1876)
T:Trad.: William Edwin Entzminger (1859-1930)
T:MÃºsica: Philip Paul Bliss (1838-1876)
M:6/8
L:1/8
Q:1/4=110
K:Fmaj
V:1
"F"A3 B2 B | A3 F3 | "Dm"F3 "C"G2 G | "F"A6 | A3 B2 B | A3 F3 | "C7"G3 A2 G | "F"F6 | "Bb"B3 B2 B | "F"B2 A A3 | "C7"c3 G2 B | "F"B2 A A3 | "F"F3 F2 F | "Bb"F2 G A3 | "F/C"A3 "C7"HA2 G | "F"F6 |]
w:1.~Qua-sea-che-ga-doao bom Sal-va-dor? Che-ga mais per-to, sim, pe-ca-dor! NÃ£o pen-ses em di-zer: 'Ho-je, nÃ£o po-de ser; Vou a-ma-nhÃ£ fa-zer a de-ci-sÃ£o.'
w:2.~Se re-sol-ves-tea Cris-to se-guir, Ho-je Ã©o tem-po de de-ci-dir Ou-vees-sa voz dea-mor Que diz, Ã³ pe-ca-dor: 'Tem-po nÃ£o hÃ¡ me-lhor pra sal-va-Ã§Ã£o.'
w:3.~Qua-se nÃ£o bas-ta; faz pe-ri-gar Tu-aes-pe-ran-Ã§a deao cÃ©u che-gar. Qua-se nÃ£o va-le-rÃ¡, Nun-ca te sal-va-rÃ¡, Mas, sim, te le-va-rÃ¡ Ã  per-di-Ã§Ã£o.          		
W:
W:
W:1. Quase achegado ao bom Salvador?
W:Chega mais perto, sim, pecador!
W:NÃ£o penses em dizer:
W:'Hoje, nÃ£o pode ser;
W:Vou amanhÃ£ fazer a decisÃ£o.'
W:
W:2. Se resolveste a Cristo seguir,
W:Hoje Ã© o tempo de decidir
W:Ouve essa voz de amor
W:Que diz, Ã³ pecador:
W:'Tempo nÃ£o hÃ¡ melhor pra salvaÃ§Ã£o.'
W:
W:
W:
W:3. Quase nÃ£o basta; faz perigar
W:Tua esperanÃ§a de ao cÃ©u chegar.
W:Quase nÃ£o valerÃ¡,
W:Nunca te salvarÃ¡,
W:Mas, sim, te levarÃ¡ Ã  perdiÃ§Ã£o.
W:
W:

